icon-themes/breeze_svg/cmd/32/framedialog.svg

<svg xmlns="http://www.w3.org/2000/svg" viewBox="0 0 32 32">
 <path 
     style="fill:#f47750" 
     d="M 4 4 L 4 28 L 17 28 L 17 27 L 5 27 L 5 5 L 27 5 L 27 25 L 28 25 L 28 4 L 4 4 z "
     />
 <path 
     style="fill:#4d4d4d" 
     d="M 5 5 L 5 27 L 17 27 L 17 26 L 6 26 L 6 6 L 26 6 L 26 25 L 27 25 L 27 5 L 5 5 z M 19.001953 26 A 1 1 0 0 0 18.001953 27 A 1 1 0 0 0 19.001953 28 A 1 1 0 0 0 20.001953 27 A 1 1 0 0 0 19.001953 26 z M 23.001953 26 A 1 1 0 0 0 22.001953 27 A 1 1 0 0 0 23.001953 28 A 1 1 0 0 0 24.001953 27 A 1 1 0 0 0 23.001953 26 z M 27.001953 26 A 1 1 0 0 0 26.001953 27 A 1 1 0 0 0 27.001953 28 A 1 1 0 0 0 28.001953 27 A 1 1 0 0 0 27.001953 26 z "
     />
</svg>

<svg viewBox="0 0 32 32" xmlns="http://www.w3.org/2000/svg"><path d="m4 4v24h13v-1h-12v-22h22v20h1v-21z" fill="#f47750"/><path d="m5 5v22h12v-1h-11v-20h20v19h1v-20zm14.001953 21a1 1 0 0 0 -1 1 1 1 0 0 0 1 1 1 1 0 0 0 1-1 1 1 0 0 0 -1-1zm4 0a1 1 0 0 0 -1 1 1 1 0 0 0 1 1 1 1 0 0 0 1-1 1 1 0 0 0 -1-1zm4 0a1 1 0 0 0 -1 1 1 1 0 0 0 1 1 1 1 0 0 0 1-1 1 1 0 0 0 -1-1z" fill="#4d4d4d"/></svg>
